icons/svg/seamark_big/small_craft_facility_pump_out.svg

<?xml version="1.0" encoding="UTF-8" standalone="no"?>
<svg
   xmlns:dc="http://purl.org/dc/elements/1.1/"
   xmlns:cc="http://creativecommons.org/ns#"
   xmlns:rdf="http://www.w3.org/1999/02/22-rdf-syntax-ns#"
   xmlns:svg="http://www.w3.org/2000/svg"
   xmlns="http://www.w3.org/2000/svg"
   xmlns:sodipodi="http://sodipodi.sourceforge.net/DTD/sodipodi-0.dtd"
   xmlns:inkscape="http://www.inkscape.org/namespaces/inkscape"
   width="1060"
   height="1060"
   id="svg2"
   version="1.1"
   inkscape:version="0.48.4 r9939"
   sodipodi:docname="small_craft_facility_boat_hoist.svg">
  <defs
     id="defs13">
    <marker
       inkscape:stockid="TriangleOutM"
       orient="auto"
       refY="0.0"
       refX="0.0"
       id="TriangleOutM"
       style="overflow:visible">
      <path
         id="path4014"
         d="M 5.77,0.0 L -2.88,5.0 L -2.88,-5.0 L 5.77,0.0 z "
         style="fill-rule:evenodd;stroke:#000000;stroke-width:1.0pt"
         transform="scale(0.4)" />
    </marker>
    <marker
       inkscape:stockid="TriangleOutS"
       orient="auto"
       refY="0.0"
       refX="0.0"
       id="TriangleOutS"
       style="overflow:visible">
      <path
         id="path4017"
         d="M 5.77,0.0 L -2.88,5.0 L -2.88,-5.0 L 5.77,0.0 z "
         style="fill-rule:evenodd;stroke:#000000;stroke-width:1.0pt"
         transform="scale(0.2)" />
    </marker>
    <marker
       inkscape:stockid="Arrow2Send"
       orient="auto"
       refY="0.0"
       refX="0.0"
       id="Arrow2Send"
       style="overflow:visible;">
      <path
         id="path3902"
         style="fill-rule:evenodd;stroke-width:0.62500000;stroke-linejoin:round;"
         d="M 8.7185878,4.0337352 L -2.2072895,0.016013256 L 8.7185884,-4.0017078 C 6.9730900,-1.6296469 6.9831476,1.6157441 8.7185878,4.0337352 z "
         transform="scale(0.3) rotate(180) translate(-2.3,0)" />
    </marker>
    <marker
       inkscape:stockid="Arrow1Send"
       orient="auto"
       refY="0.0"
       refX="0.0"
       id="Arrow1Send"
       style="overflow:visible;">
      <path
         id="path3884"
         d="M 0.0,0.0 L 5.0,-5.0 L -12.5,0.0 L 5.0,5.0 L 0.0,0.0 z "
         style="fill-rule:evenodd;stroke:#000000;stroke-width:1.0pt;"
         transform="scale(0.2) rotate(180) translate(6,0)" />
    </marker>
    <marker
       inkscape:stockid="Arrow1Lend"
       orient="auto"
       refY="0.0"
       refX="0.0"
       id="Arrow1Lend"
       style="overflow:visible;">
      <path
         id="path3872"
         d="M 0.0,0.0 L 5.0,-5.0 L -12.5,0.0 L 5.0,5.0 L 0.0,0.0 z "
         style="fill-rule:evenodd;stroke:#000000;stroke-width:1.0pt;"
         transform="scale(0.8) rotate(180) translate(12.5,0)" />
    </marker>
    <inkscape:path-effect
       effect="gears"
       id="path-effect3774"
       is_visible="true"
       teeth="6"
       phi="-1.2" />
    <inkscape:path-effect
       effect="bend_path"
       id="path-effect3772"
       is_visible="false"
       bendpath="m 95.790098,316.51174 c 144.429032,-206.42506 223.313032,-11.7428 339.548092,0"
       prop_scale="1.19"
       scale_y_rel="false"
       vertical="false"
       bendpath-nodetypes="cc" />
  </defs>
  <sodipodi:namedview
     pagecolor="#ffffff"
     bordercolor="#666666"
     borderopacity="1"
     objecttolerance="10"
     gridtolerance="10"
     guidetolerance="10"
     inkscape:pageopacity="0"
     inkscape:pageshadow="2"
     inkscape:window-width="1920"
     inkscape:window-height="1004"
     id="namedview11"
     showgrid="false"
     inkscape:zoom="0.81379307"
     inkscape:cx="530.08961"
     inkscape:cy="615.32476"
     inkscape:window-x="1680"
     inkscape:window-y="0"
     inkscape:window-maximized="1"
     inkscape:current-layer="svg2"
     inkscape:snap-object-midpoints="true"
     inkscape:snap-center="true"
     inkscape:snap-global="false">
    <inkscape:grid
       type="xygrid"
       id="grid2989" />
  </sodipodi:namedview>
  <metadata
     id="metadata2975">image/svg+xmlen<rdf:RDF>
  <cc:Work
     rdf:about="">
    <dc:format>image/svg+xml</dc:format>
    <dc:type
       rdf:resource="http://purl.org/dc/dcmitype/StillImage" />
    <dc:title></dc:title>
  </cc:Work>
</rdf:RDF>
</metadata>
  <path
     style="fill:none;stroke:#930093;stroke-width:14.60776615;stroke-linecap:round;stroke-linejoin:round;stroke-miterlimit:4;stroke-opacity:1;stroke-dasharray:none"
     d="m 608.19223,542.30971 56.76177,0 0,33.29852 -71.24181,33.29853 -122.21157,0 -76.45463,-64.63832 74.13783,0 34.7521,-39.66442 35.91051,0"
     id="path3858"
     inkscape:connector-curvature="0" />
  <path
     style="color:#000000;fill:#930093;fill-opacity:1;fill-rule:evenodd;stroke:none;stroke-width:20.60000038;marker:none;visibility:visible;display:inline;overflow:visible;enable-background:accumulate"
     d="m 515.86491,546.44286 63.56389,0 0,26.11235 -9.83051,15.05291 -53.73338,0 z"
     id="rect3860"
     inkscape:connector-curvature="0"
     sodipodi:nodetypes="cccccc" />
  <path
     inkscape:connector-curvature="0"
     id="path3863"
     d="m 521.02699,443.78936 c -8.71668,0 -15.64347,7.50485 -15.6875,16.8125 -0.0292,6.1763 0,119.6875 0,119.6875 -0.004,3.81954 3.46173,7.30029 7.28125,7.3125 l 16.8125,0 c 3.82882,0 7.3125,-3.48368 7.3125,-7.3125 0,-3.82882 -3.48368,-7.3125 -7.3125,-7.3125 l -9.5,0 c -0.002,-12.45513 -0.023,-107.45791 0,-112.3125 0.01,-2.02333 1.58443,-2.28125 1.09375,-2.28125 l 45.875,0 c 1.45807,0 1.21886,0.14893 1.375,0.34375 0.15614,0.19482 0.4375,1.00541 0.4375,1.78125 l 0,27.90625 c -0.004,3.82994 3.48256,7.31664 7.3125,7.3125 l 53.4375,0 c 1.9663,0.0906 3.95752,-0.65477 5.38104,-2.01422 1.42353,-1.35946 2.25971,-3.31427 2.25971,-5.28266 0,-1.96838 -0.83618,-3.92319 -2.25971,-5.28265 -1.42352,-1.35945 -3.41474,-2.1048 -5.38104,-2.01422 l -46.125,0 0,-20.625 c 0,-3.56446 -0.9415,-7.47995 -3.6875,-10.90625 -2.746,-3.4263 -7.57088,-5.8125 -12.75,-5.8125 z"
     style="font-size:medium;font-style:normal;font-variant:normal;font-weight:normal;font-stretch:normal;text-indent:0;text-align:start;text-decoration:none;line-height:normal;letter-spacing:normal;word-spacing:normal;text-transform:none;direction:ltr;block-progression:tb;writing-mode:lr-tb;text-anchor:start;baseline-shift:baseline;color:#000000;fill:#930093;fill-opacity:1;stroke:none;stroke-width:14.60776615;marker:none;visibility:visible;display:inline;overflow:visible;enable-background:accumulate;font-family:Sans;-inkscape-font-specification:Sans"
     sodipodi:nodetypes="ssccssscccssscccsssccssss" />
  <path
     inkscape:connector-curvature="0"
     id="path5071"
     d="m 666.88892,488.42873 -57.98333,33.51638 0,-67.03276 57.98333,33.51638 z"
     style="fill:#930093;fill-opacity:1;fill-rule:evenodd;stroke:none" />
</svg>

<svg width="1060" height="1060" viewBox="0 0 1060 1060" fill="none" xmlns="http://www.w3.org/2000/svg">
<path d="M608.192 542.31H664.954V575.608L593.712 608.907H471.501L395.046 544.268H469.184L503.936 504.604H539.846" stroke="#930093" stroke-width="14.6078" stroke-linecap="round" stroke-linejoin="round"/>
<path fill-rule="evenodd" clip-rule="evenodd" d="M515.865 546.443H579.429V572.555L569.598 587.608H515.865V546.443Z" fill="#930093"/>
<path d="M521.027 443.79C512.31 443.79 505.383 451.294 505.339 460.602C505.31 466.778 505.339 580.29 505.339 580.29C505.335 584.109 508.801 587.59 512.621 587.602H529.433C533.262 587.602 536.746 584.118 536.746 580.29C536.746 576.461 533.262 572.977 529.433 572.977H519.933C519.931 560.522 519.91 465.519 519.933 460.665C519.943 458.641 521.518 458.383 521.027 458.383H566.902C568.36 458.383 568.121 458.532 568.277 458.727C568.433 458.922 568.714 459.732 568.714 460.508V488.415C568.71 492.244 572.197 495.731 576.027 495.727H629.464C631.431 495.818 633.422 495.072 634.845 493.713C636.269 492.353 637.105 490.399 637.105 488.43C637.105 486.462 636.269 484.507 634.845 483.148C633.422 481.788 631.431 481.043 629.464 481.133H583.339V460.508C583.339 456.944 582.398 453.028 579.652 449.602C576.906 446.176 572.081 443.79 566.902 443.79H521.027Z" fill="#930093"/>
<path fill-rule="evenodd" clip-rule="evenodd" d="M666.889 488.428L608.906 521.945V454.912L666.889 488.428Z" fill="#930093"/>
</svg>
